X: 2026
T: MISS ROSE OF TIRLOGIE
R: Reel.
%R: reel
B: James Kerr "Merry Melodies" v.2 p.6 #26
Z: 2016 John Chambers <jc:trillian.mit.edu>
M: C
L: 1/8
K: A
E |\
CA,CEA2(EA) | FAEC DB,B,E |\
CA,CE FGAB | cfed cAA ::\
e |\
c/B/A (eA) cAeA |
GEBE dEBE |\
[1 (cB/A/) (eA) cAeA | GEdB cAA :|\
[2 cefg aecA | FdcB cAA |]
